img/social-icons/instagram.svg

<svg width="60" height="60" viewBox="0 0 60 60" fill="none" xmlns="http://www.w3.org/2000/svg">
<mask id="mask0" mask-type="alpha" maskUnits="userSpaceOnUse" x="0" y="0" width="60" height="60">
<path fill-rule="evenodd" clip-rule="evenodd" d="M0 30C0 13.4315 13.4315 0 30 0C46.5685 0 60 13.4315 60 30C60 46.5685 46.5685 60 30 60C13.4315 60 0 46.5685 0 30Z" fill="white"/>
</mask>
<g mask="url(#mask0)">
<path fill-rule="evenodd" clip-rule="evenodd" d="M0 30C0 13.4315 13.4315 0 30 0C46.5685 0 60 13.4315 60 30C60 46.5685 46.5685 60 30 60C13.4315 60 0 46.5685 0 30Z" fill="black"/>
<path fill-rule="evenodd" clip-rule="evenodd" d="M0 30C0 13.4315 13.4315 0 30 0C46.5685 0 60 13.4315 60 30C60 46.5685 46.5685 60 30 60C13.4315 60 0 46.5685 0 30Z" fill="url(#paint0_linear)"/>
<path fill-rule="evenodd" clip-rule="evenodd" d="M30.0015 14C25.6561 14 25.1108 14.019 23.4041 14.0967C21.7007 14.1747 20.5381 14.4443 19.5207 14.84C18.4684 15.2487 17.5757 15.7954 16.6864 16.685C15.7964 17.5744 15.2497 18.467 14.8397 19.5191C14.443 20.5367 14.173 21.6997 14.0963 23.4024C14.02 25.1091 14 25.6548 14 30.0002C14 34.3455 14.0193 34.8892 14.0967 36.5959C14.175 38.2993 14.4447 39.4619 14.84 40.4793C15.249 41.5316 15.7957 42.4243 16.6854 43.3136C17.5744 44.2036 18.467 44.7517 19.5187 45.1603C20.5367 45.556 21.6997 45.8257 23.4028 45.9037C25.1094 45.9813 25.6545 46.0003 29.9995 46.0003C34.3452 46.0003 34.8889 45.9813 36.5956 45.9037C38.2989 45.8257 39.4629 45.556 40.4809 45.1603C41.533 44.7517 42.4243 44.2036 43.3133 43.3136C44.2033 42.4243 44.75 41.5316 45.16 40.4796C45.5533 39.4619 45.8233 38.2989 45.9033 36.5962C45.98 34.8896 46 34.3455 46 30.0002C46 25.6548 45.98 25.1094 45.9033 23.4028C45.8233 21.6994 45.5533 20.5367 45.16 19.5194C44.75 18.467 44.2033 17.5744 43.3133 16.685C42.4233 15.795 41.5333 15.2483 40.4799 14.84C39.4599 14.4443 38.2966 14.1747 36.5932 14.0967C34.8866 14.019 34.3432 14 29.9965 14L30.0015 14ZM28.5662 16.8834C28.9922 16.8827 29.4675 16.8834 30.0015 16.8834C34.2735 16.8834 34.7799 16.8987 36.4669 16.9754C38.0269 17.0467 38.8736 17.3074 39.4376 17.5264C40.1843 17.8164 40.7166 18.163 41.2763 18.723C41.8363 19.2831 42.183 19.8164 42.4736 20.5631C42.6926 21.1264 42.9536 21.9731 43.0246 23.5331C43.1013 25.2198 43.118 25.7265 43.118 29.9965C43.118 34.2665 43.1013 34.7732 43.0246 36.4599C42.9533 38.0199 42.6926 38.8666 42.4736 39.4299C42.1836 40.1766 41.8363 40.7083 41.2763 41.268C40.7163 41.828 40.1846 42.1746 39.4376 42.4646C38.8743 42.6846 38.0269 42.9446 36.4669 43.016C34.7802 43.0926 34.2735 43.1093 30.0015 43.1093C25.7291 43.1093 25.2228 43.0926 23.5361 43.016C21.9761 42.944 21.1294 42.6833 20.5651 42.4643C19.8184 42.1743 19.2851 41.8276 18.725 41.2676C18.165 40.7076 17.8184 40.1756 17.5277 39.4286C17.3087 38.8653 17.0477 38.0186 16.9767 36.4586C16.9 34.7719 16.8847 34.2652 16.8847 29.9925C16.8847 25.7198 16.9 25.2158 16.9767 23.5291C17.048 21.9691 17.3087 21.1224 17.5277 20.5584C17.8177 19.8117 18.165 19.2784 18.725 18.7184C19.2851 18.1584 19.8184 17.8117 20.5651 17.521C21.1291 17.301 21.9761 17.041 23.5361 16.9694C25.0121 16.9027 25.5841 16.8827 28.5662 16.8794V16.8834ZM38.5423 19.5401C37.4822 19.5401 36.6222 20.3991 36.6222 21.4594C36.6222 22.5194 37.4822 23.3794 38.5423 23.3794C39.6023 23.3794 40.4623 22.5194 40.4623 21.4594C40.4623 20.3994 39.6023 19.5394 38.5423 19.5394V19.5401ZM30.0015 21.7834C25.4638 21.7834 21.7847 25.4625 21.7847 30.0002C21.7847 34.5379 25.4638 38.2153 30.0015 38.2153C34.5392 38.2153 38.2169 34.5379 38.2169 30.0002C38.2169 25.4625 34.5389 21.7834 30.0012 21.7834L30.0015 21.7834ZM30.0015 24.6668C32.9469 24.6668 35.3349 27.0545 35.3349 30.0002C35.3349 32.9455 32.9469 35.3336 30.0015 35.3336C27.0558 35.3336 24.6681 32.9455 24.6681 30.0002C24.6681 27.0545 27.0558 24.6668 30.0015 24.6668V24.6668Z" fill="white"/>
</g>
<defs>
<linearGradient id="paint0_linear" x1="53" y1="-2.03168e-07" x2="4.50001" y2="56.5" gradientUnits="userSpaceOnUse">
<stop stop-color="#5F5DCC"/>
<stop offset="0.520833" stop-color="#D9387B"/>
<stop offset="0.927547" stop-color="#FABC35"/>
</linearGradient>
</defs>
</svg>

<svg xmlns="http://www.w3.org/2000/svg" width="60" height="60" fill="none" viewBox="0 0 60 60"><mask id="a" width="60" height="60" x="0" y="0" maskUnits="userSpaceOnUse"><path fill="#fff" fill-rule="evenodd" d="M0 30C0 13.431 13.431 0 30 0c16.569 0 30 13.431 30 30 0 16.569-13.431 30-30 30C13.431 60 0 46.569 0 30z" clip-rule="evenodd"/></mask><g fill-rule="evenodd" clip-rule="evenodd" mask="url(#a)"><path fill="#000" d="M0 30C0 13.431 13.431 0 30 0c16.569 0 30 13.431 30 30 0 16.569-13.431 30-30 30C13.431 60 0 46.569 0 30z"/><path fill="url(#paint0_linear)" d="M0 30C0 13.431 13.431 0 30 0c16.569 0 30 13.431 30 30 0 16.569-13.431 30-30 30C13.431 60 0 46.569 0 30z"/><path fill="#fff" d="M30.002 14c-4.346 0-4.891.019-6.598.097-1.703.078-2.866.347-3.883.743a7.836 7.836 0 0 0-2.835 1.845 7.855 7.855 0 0 0-1.846 2.834c-.397 1.018-.667 2.18-.744 3.883C14.02 25.11 14 25.655 14 30c0 4.346.02 4.89.097 6.596.078 1.703.348 2.866.743 3.883a7.84 7.84 0 0 0 1.845 2.835 7.833 7.833 0 0 0 2.834 1.846c1.018.396 2.18.666 3.884.744C25.109 45.98 25.655 46 30 46c4.345 0 4.889-.019 6.596-.096 1.703-.078 2.867-.348 3.885-.744a7.827 7.827 0 0 0 2.832-1.846 7.854 7.854 0 0 0 1.847-2.834c.393-1.018.663-2.181.743-3.884C45.98 34.89 46 34.346 46 30c0-4.345-.02-4.89-.097-6.597-.08-1.704-.35-2.866-.743-3.884a7.853 7.853 0 0 0-1.847-2.834 7.819 7.819 0 0 0-2.833-1.845c-1.02-.396-2.183-.665-3.887-.743-1.706-.078-2.25-.097-6.597-.097h.006zm-1.436 2.883h1.436c4.271 0 4.778.016 6.465.092 1.56.072 2.407.332 2.97.551.747.29 1.28.637 1.84 1.197s.906 1.093 1.197 1.84c.219.563.48 1.41.55 2.97.077 1.687.094 2.194.094 6.463 0 4.27-.017 4.777-.093 6.464-.072 1.56-.332 2.407-.551 2.97a4.947 4.947 0 0 1-1.198 1.838c-.56.56-1.091.907-1.838 1.197-.564.22-1.411.48-2.971.551-1.687.077-2.194.093-6.465.093-4.273 0-4.78-.016-6.466-.093-1.56-.072-2.407-.333-2.97-.552a4.957 4.957 0 0 1-1.841-1.196 4.96 4.96 0 0 1-1.197-1.84c-.22-.563-.48-1.41-.551-2.97-.077-1.686-.092-2.193-.092-6.465 0-4.273.015-4.777.092-6.464.071-1.56.332-2.407.55-2.97.29-.747.638-1.28 1.198-1.84a4.967 4.967 0 0 1 1.84-1.198c.564-.22 1.411-.48 2.971-.552 1.476-.066 2.048-.086 5.03-.09v.004zm9.976 2.657a1.92 1.92 0 1 0 0 3.841 1.92 1.92 0 0 0 0-3.842v.001zm-8.54 2.243a8.216 8.216 0 1 0 0 16.432 8.216 8.216 0 0 0 0-16.432zm0 2.884a5.333 5.333 0 1 1 0 10.667 5.333 5.333 0 0 1 0-10.667z"/></g><defs><linearGradient id="paint0_linear" x1="53" x2="4.5" y1="0" y2="56.5" gradientUnits="userSpaceOnUse"><stop stop-color="#5F5DCC"/><stop offset=".521" stop-color="#D9387B"/><stop offset=".928" stop-color="#FABC35"/></linearGradient></defs></svg>
